resources/haticons/SVG/happy2.svg

<!-- Generated by IcoMoon.io -->
<svg version="1.1" xmlns="http://www.w3.org/2000/svg" width="24" height="24" viewBox="0 0 24 24">
<title>happy2</title>
<path d="M12 0c-6.627 0-12 5.373-12 12s5.373 12 12 12 12-5.373 12-12-5.373-12-12-12zM16.5 6c0.828 0 1.5 1.007 1.5 2.25s-0.672 2.25-1.5 2.25-1.5-1.007-1.5-2.25 0.672-2.25 1.5-2.25zM7.5 6c0.828 0 1.5 1.007 1.5 2.25s-0.672 2.25-1.5 2.25-1.5-1.007-1.5-2.25 0.672-2.25 1.5-2.25zM12 21c-3.911 0-7.158-3.278-7.5-7.46 2.198 1.268 4.782 1.994 7.5 1.994s5.302-0.722 7.5-1.99c-0.342 4.182-3.589 7.457-7.5 7.457z"></path>
</svg>

<svg xmlns="http://www.w3.org/2000/svg" width="24" height="24"><path d="M12 0C5.373 0 0 5.373 0 12s5.373 12 12 12 12-5.373 12-12S18.627 0 12 0zm4.5 6c.828 0 1.5 1.007 1.5 2.25s-.672 2.25-1.5 2.25S15 9.493 15 8.25 15.672 6 16.5 6zm-9 0C8.328 6 9 7.007 9 8.25s-.672 2.25-1.5 2.25S6 9.493 6 8.25 6.672 6 7.5 6zM12 21c-3.911 0-7.158-3.278-7.5-7.46 2.198 1.268 4.782 1.994 7.5 1.994s5.302-.722 7.5-1.99c-.342 4.182-3.589 7.457-7.5 7.457z"/></svg>
